X: 10753
T: The BUTCHER BOY
Q: "Briskly."
%R: reel, march
B: W. Hamilton "Universal Tune-Book" Vol. 1 Glasgow 1844 p.75 #3
S: http://imslp.org/wiki/Hamilton's_Universal_Tune-Book_(Various)
Z: 2016 John Chambers <jc:trillian.mit.edu>
M: C
L: 1/16
K: G	% and Em
% - - - - - - - - - - - - - - - - - - - - - - - - -
BA |\
G3AB2d2 e3fg2(ga) | b2B2B3A G3FE2F2 |\
G3AB2d2 edef e3f | g3a gabg a2g2 :|
|: d2 |\
g2(ag) f2(gf) {f}e3dB3B | g2(ag) f2(gf) e4 B2B2 |\
g2(ag) f2(gf) e3fg3a | b2B2 BcBA G4 E2 :|
% - - - - - - - - - - - - - - - - - - - - - - - - -

%%sep 1 1 500
%%sep 1 1 500

